X:1
T:Second Mode Melody, CMD
T:Second Mode Melody, CMD
T:Thomas Tallis (1515-1585)
T:Public Domain Courtesy of the Cyber Hymnal™
C:Thomas Tallis (1515-1585)
Z:Public Domain
Z:Courtesy of the Cyber Hymnal™
%%score ( 1 2 ) ( 3 4 )
L:1/8
Q:1/4=110
M:4/4
K:G
V:1 treble 
V:2 treble 
V:3 bass 
V:4 bass 
V:1
 [B,E]4 | [B,E]2 [DF]2 [DG]2 [B,E]2 | F3 z F [CE]2 [CE]2 | [B,D]2 E2 [EF]2 [DF]2 | E6 E2 | %5
 [EA]2 [GB]2 [Gc]2 [EA]2 | [GB]2 [GB]2 [=FA]2 [FA]2 | [EG]2 [CA]2 [EB]2 [EB]2 | [CA]6 D2 | %9
 [B,G]2 [DA]2 [DB]2 [DG]2 | [EA]2 [DA]2 [B,G]2 [DG]2 | [DF]2 [B,G]2 A2 z x3 | [B,G]6 | [B,G]2 | %14
 [DF]2 [EG]2 [EA]2 [DF]2 | [DG]2 [DG]2 [DF]2 [CE]2 |[M:3/2] [CE]2 [B,D]2 [CE]4 [DF]4 [DF]6 |] %17
V:2
 x4 | x8 | D2 F2 x5 | x2 E2 x4 | E6 E2 | x8 | x8 | x8 | x6 D2 | x8 | x8 | x4 D3 (A2 C) | x6 | x2 | %14
 x8 | x8 |[M:3/2] x18 |] %17
V:3
 [E,G,]4 | [E,G,]2 [D,A,]2 [B,,G,]2 [E,G,]2 | [B,,B,]2 [B,,A,]2 [C,G,]2 [C,G,]2 x | %3
 [G,,G,]2 [C,G,]2 [B,,B,]2 [B,,B,]2 | [E,G,]6 [G,B,]2 | [A,C]2 [G,D]2 [E,C]2 [A,C]2 | %6
 [E,E]2 [E,D]2 [=F,C]2 [F,C]2 | [C,C]2 [=F,A,]2 [E,A,]2 [E,G,]2 | [A,,A,]6 [B,,G,]2 | %9
 [E,G,]2 [D,F,]2 [G,,G,]2 [B,,G,]2 | [C,C]2 [D,F,]2 [E,G,]2 [B,,G,]2 | %11
 [D,A,]2 [E,G,]2 [D,G,]2 [D,F,]2 x2 | [G,,G,]6 | [E,G,]2 | [B,,B,]2 [E,B,]2 [A,,C]2 [D,A,]2 | %15
 [G,,B,]2 [G,,B,]2 [B,,B,]2 [C,G,]2 |[M:3/2] [C,G,]2 [G,,G,]2 [C,G,]4 B,4 [E,,A,]6 |] %17
V:4
 x4 | x8 | x9 | x8 | x8 | x8 | x8 | x8 | x8 | x8 | x8 | x10 | x6 | x2 | x8 | x8 | %16
[M:3/2] x8 C,8 x2 |] %17

